assets/document-code-2.svg

<svg width="50" height="50" viewBox="0 0 50 50" fill="none" xmlns="http://www.w3.org/2000/svg">
<path d="M43.75 27.146V14.5834C43.75 8.33341 40.625 4.16675 33.3333 4.16675H16.6667C9.375 4.16675 6.25 8.33341 6.25 14.5834V29.1667" stroke="#292D32" stroke-width="3" stroke-miterlimit="10" stroke-linecap="round" stroke-linejoin="round"/>
<path d="M22.9167 45.8334H33.3334C40.6251 45.8334 43.7501 41.6667 43.7501 35.4167" stroke="#292D32" stroke-width="3" stroke-miterlimit="10" stroke-linecap="round" stroke-linejoin="round"/>
<path d="M30.2083 9.375V13.5417C30.2083 15.8333 32.0833 17.7083 34.3749 17.7083H38.5416" stroke="#292D32" stroke-width="3" stroke-miterlimit="10" stroke-linecap="round" stroke-linejoin="round"/>
<path d="M8.33341 35.4167L4.16675 39.5834L8.33341 43.7501" stroke="#292D32" stroke-width="3" stroke-miterlimit="10" stroke-linecap="round" stroke-linejoin="round"/>
<path d="M14.5833 35.4167L18.7499 39.5834L14.5833 43.7501" stroke="#292D32" stroke-width="3" stroke-miterlimit="10" stroke-linecap="round" stroke-linejoin="round"/>
</svg>

<svg xmlns="http://www.w3.org/2000/svg" width="50" height="50" fill="none" stroke="#292d32" stroke-width="3" stroke-miterlimit="10" stroke-linecap="round" stroke-linejoin="round" xmlns:v="https://vecta.io/nano"><path d="M43.75 27.146V14.583c0-6.25-3.125-10.417-10.417-10.417H16.667C9.375 4.167 6.25 8.333 6.25 14.583v14.583m16.667 16.667h10.417c7.292 0 10.417-4.167 10.417-10.417"/><path d="M30.208 9.375v4.167a4.18 4.18 0 0 0 4.167 4.167h4.167M8.333 35.417l-4.167 4.167 4.167 4.167m6.25-8.334l4.167 4.167-4.167 4.167"/></svg>
